app/images/background/cut.svg

<svg xmlns="http://www.w3.org/2000/svg" viewBox="1.7 -1.7 25.6 29.1"><g fill="#333"><path d="M19.8 9.3c1.6.4 3.3-.1 4.4-1.4l2.2-2.6c1.5-1.8 1.3-4.6-.5-6.1-1.9-1.5-4.7-1.2-6.2.6l-2.2 2.6c-1.1 1.3-1.3 3.1-.6 4.5l-1.3 1.5 2.5 2.9 1.7-2zm-.2-2.7c-.8-.6-.9-1.8-.2-2.6l2.2-2.6c.7-.8 1.8-.9 2.6-.2.8.6.9 1.8.3 2.6l-2.2 2.6c-.7.8-1.9.9-2.7.2zM11 14l-6.7 8c-1.4 1.6-1.1 4 .5 5.3L13.5 17 11 14z"/><path d="M24.4 27.4c1.6-1.4 1.8-3.8.5-5.4L12.2 7c.6-1.5.5-3.2-.6-4.5L9.4-.2C7.9-2 5.1-2.3 3.3-.7 1.5.8 1.2 3.6 2.8 5.4L4.9 8C6 9.3 7.7 9.8 9.3 9.4l15.1 18zm-8.6-14.6c0 .7-.6 1.3-1.3 1.3-.7 0-1.3-.6-1.3-1.3 0-.7.6-1.3 1.3-1.3.7 0 1.3.6 1.3 1.3zm-9-6.4L4.6 3.8c-.6-.8-.5-2 .3-2.6.8-.7 2-.6 2.6.2L9.7 4c.7.8.6 2-.2 2.6-.8.7-2 .6-2.7-.2z"/></g></svg>

<?xml version="1.0" encoding="utf-8"?>
<!-- Generator: Adobe Illustrator 18.0.0, SVG Export Plug-In . SVG Version: 6.00 Build 0)  -->
<!DOCTYPE svg PUBLIC "-//W3C//DTD SVG 1.1//EN" "http://www.w3.org/Graphics/SVG/1.1/DTD/svg11.dtd">
<svg version="1.1" id="Capa_1" xmlns="http://www.w3.org/2000/svg" xmlns:xlink="http://www.w3.org/1999/xlink" x="0px" y="0px"
	 viewBox="1.7 -1.7 25.6 29.1" enable-background="new 1.7 -1.7 25.6 29.1" xml:space="preserve">
<g>
	<g>
		<g>
			<path fill="#333333" d="M19.8,9.3c1.6,0.4,3.3-0.1,4.4-1.4l2.2-2.6c1.5-1.8,1.3-4.6-0.5-6.1C24-2.3,21.2-2,19.7-0.2l-2.2,2.6
				c-1.1,1.3-1.3,3.1-0.6,4.5l-1.3,1.5l2.5,2.9L19.8,9.3z M19.6,6.6C18.8,6,18.7,4.8,19.4,4l2.2-2.6c0.7-0.8,1.8-0.9,2.6-0.2
				C25,1.8,25.1,3,24.5,3.8l-2.2,2.6C21.6,7.2,20.4,7.3,19.6,6.6z"/>
			<path fill="#333333" d="M11,14l-6.7,8c-1.4,1.6-1.1,4,0.5,5.3l0,0l8.7-10.3L11,14z"/>
			<path fill="#333333" d="M24.4,27.4L24.4,27.4c1.6-1.4,1.8-3.8,0.5-5.4L12.2,7c0.6-1.5,0.5-3.2-0.6-4.5L9.4-0.2
				C7.9-2,5.1-2.3,3.3-0.7C1.5,0.8,1.2,3.6,2.8,5.4L4.9,8C6,9.3,7.7,9.8,9.3,9.4L24.4,27.4z M15.8,12.8c0,0.7-0.6,1.3-1.3,1.3
				c-0.7,0-1.3-0.6-1.3-1.3c0-0.7,0.6-1.3,1.3-1.3C15.2,11.5,15.8,12.1,15.8,12.8z M6.8,6.4L4.6,3.8C4,3,4.1,1.8,4.9,1.2
				c0.8-0.7,2-0.6,2.6,0.2L9.7,4c0.7,0.8,0.6,2-0.2,2.6C8.7,7.3,7.5,7.2,6.8,6.4z"/>
		</g>
	</g>
</g>
</svg>
